X:1
T:Ma bouche rit
T:François Dubois
T:Source : Second livre contenant 31 chansons eslevées---Paris---P.Attaignant---1535. Editor : André Vierendeels ( 20/12/17). Notes : Original clefs : C1, C3, C3, C4, F4 Original note values have been halved Editorial accidentals above the staff Square brackets indicate ligatures
T:Ma bouche rit
T:©
T:©
T:©
C:François Dubois
Z:©
%%score [ 1 [ 2 3 ] 4 ]
L:1/8
Q:1/4=120
M:2/2
K:F
V:1 treble nm="Soprano" snm="S"
V:2 treble-8 nm="Tenor 1" snm="T 1"
V:3 treble-8 nm="Tenor 2" snm="T 2"
V:4 bass nm="Bass" snm="B"
V:1
 z8 | z8 | c4 c2 d2 | cBAG F2 B2 | AGFE F2 G2- | GF F4 E2 | F4 z4 | z2 F2 B2 A2 | G2 F2 G2 A2 | %9
w: ||Ma bou- che|rit _ _ _ _ et|mon _ _ _ _ cueur-|* * pleu- *|re,|qunt ia- per-|çoy ma da- me'à|
 F3 G A2 B2- | BA A4 G2 | A8 | z2 c2 c3 B | A2 G2 A2 A2 | GFED C2 c2- | c2 B2 c4 | z2 A2 A2 c2 | %17
w: _ _ _ lheu-||re,|qu'en- tre les|gens prend _ ces|sou- * * * * *|* * las,|mais à part|
 BAGF E2 D2 | EFGE F2 F2 | E4 z4 | z8 | c4 c2 d2 | cBAG F2 B2 | AGFE F2 G2- | GF F4 E2 | F8- | F8 | %27
w: ie _ _ _ _ luy|ditz: _ _ _ _ hel-|las,||bel- le, ne|souf- * * * frez que|ie _ _ _ _ meu-||re,|_|
 c4 c2 d2 | cBAG F2 B2 | AGFE F2 G2- | GF F4 E2 | F8 |] %32
w: bel- le ne|souf- * * * frez que|ie- * * * * meu-||re.|
V:2
 c4 c2 d2 | cBAG F2 B2 | A2 F2 f4- | f4 d3 e | f4 z2 d2 | d2 B2 c4 | A2 c2 f3 e | d2 c2 d4 | %8
w: Ma bou- che|rit _ _ _ _ et|mon cueur pleu-||re, et|mon cueur pleu-|re, quant ia- per-|çoy ma da-|
 d4 c4- | c2 d2 e2 f2- | f2 f2 d2 e2 | f2 c2 c3 B | AF f4 e2 | f2 d2 f4 | e2 g2 a2 g2 | a2 g2 e4 | %16
w: me'à lheu-|* re, ma da-|* me'à lheu- re|qu'en- tre les _|_ _ gens prend|ces _ sou-|las, prend ces _|_ sou- las,|
 z2 f2 f2 e2 | d3 B c2 d2- | dc c4 B2 | c2 c2 c2 d2 | cBAG F2 B2 | A2 E2 f4- | f4 d3 e | %23
w: mais à part|ie _ luy ditz|_ _ hel- las,|bel- le, ne souf-|frez _ _ _ que ie|meu- * *||
 f4 z2 d2- | d2 B2 c4 | A2 c2 c2 d2 | cBAG F2 B2 | A2 F2 f4- | f4 d3 e | f4 z2 d2- | d2 B2 c4 | %31
w: re, que|_ ie meu-|re, bel- le ne|souf- * * * frez que|ie meu- *||re, que|_ ie meu-|
 A8 |] %32
w: re.|
V:3
 z8 | c4 c2 d2 | cBAG F2 B2 | A2 c4 B2 | c2 d3 cBA | BAGF G4 | F8 | z4 z2 F2 | B2 A2 G2 F2 | %9
w: |Ma bou- che|rit _ _ _ _ et|mon cueur _|_ _ _ _ _|* * * * pleu-|re,|quant|ia- per- çcoy ma|
 A3 B c2 d2- | dcBA B4 | A4 z2 c2 | c3 B A2 G2 | A2 B2 c2 d2 | B2 c3 def | d4 c4 | z2 c2 c2 c2 | %17
w: da- * * me'à|_ _ _ _ lheu-|re qu'en-|tre _ _ les|gens pren ces _|_ _ _ _ _|sou- las,|mais à part|
 F4 G2 B2 | A2 G4 F2 | G4 A4 | z2 c2 c2 d2 | cBAG F2 B2 | A2 c4 B2 | c2 d3 cBA | BAGF G4 | F8 | %26
w: ie luy ditz:|hel- * *|* las,|bel- le ne|souf- * * * frez que|ie meu- *|||re,|
 z2 c2 c2 d2 | cBAG F2 B2 | A2 c4 B2 | c2 d3 cBA | BAGF G4 | F8 |] %32
w: bel- le, ne|souf- * * * frez que|ie meu- *|||re.|
V:4
 z8 | z8 | z8 | F,4 F,2 G,2 | F,E,D,C, B,,2 G,,2 | D,2 D,2 C,4 | F,,4 z2 F,2 | B,3 A, G,2 F,2 | %8
w: |||Ma bou- che|rit _ _ _ _ et|mon cueur pleu-|re, quant|ia- * * per-|
 G,2 D,2 E,2 F,2- | F,E, D,2 C,2 B,,2 | F,4 G,4 | F,8 | z2 F,2 F,2 C,2 | F,2 G,2 F,2 D,2 | %14
w: çoy ma da- me'à|_ _ _ _ _|lheu- *|re,|qu'en- tre les|gens prend ces sou-|
 E,2 C,2 F,2 E,2 | F,2 G,2 C,4 | z2 F,2 F,2 C,2 | D,4 C,2 B,,2 | C,4 D,4 | C,4 F,4- | F,4 z4 | z8 | %22
w: las, prend ces _|sou- * las,|mais à part|ie luy ditz:|hel- *|* las,|_||
 F,4 F,2 G,2 | F,E,D,C, B,,2 G,,2 | D,2 D,2 C,4 | F,,8- | F,,4 z4 | z8 | F,4 F,2 G,2 | %29
w: bel- le ne|souf- * * * frez que|ie meu- *|re.|_||bel- le ne|
 F,E,D,C, B,,2 G,,2 | D,2 D,2 C,4 | F,,8 |] %32
w: souf- * * * frez que|ie meu- *|re.|

